assets/1. F-P/No bicycles/Color/No.Bicycles-color.svg

<svg width="100%" height="100%" viewBox="0 0 32 32" fill="none" xmlns="http://www.w3.org/2000/svg">
<g filter="url(#filter0_i_18590_579)">
<path d="M24.4926 22.2247C25.7799 20.4353 26.5424 18.2424 26.5424 15.875C26.5424 9.84496 21.6324 4.93496 15.6024 4.94496C13.235 4.94496 11.0422 5.70742 9.25278 6.99461C9.12975 7.08311 9.11786 7.26041 9.22506 7.36754L24.1198 22.2525C24.2269 22.3596 24.4041 22.3477 24.4926 22.2247Z" fill="url(#paint0_linear_18590_579)"/>
<path d="M6.72203 9.51529C5.43403 11.3047 4.66235 13.498 4.66235 15.875C4.66235 21.905 9.57235 26.815 15.6024 26.815C17.9698 26.815 20.1628 26.0432 21.961 24.7552C22.0844 24.6668 22.0966 24.4892 21.9892 24.3818L7.09493 9.48754C6.98778 9.38039 6.81055 9.39231 6.72203 9.51529Z" fill="url(#paint1_linear_18590_579)"/>
</g>
<g filter="url(#filter1_i_18590_579)">
<path d="M8.60229 10.38C8.60229 10.1039 8.82615 9.88 9.10229 9.88H14.1023C14.3784 9.88 14.6023 10.1039 14.6023 10.38C14.6023 10.6561 14.3784 10.88 14.1023 10.88H10.5506C10.481 11.024 10.3436 11.1321 10.1735 11.1573C10.0639 11.1736 9.90234 11.291 9.76288 11.6919C9.63477 12.0601 9.58826 12.5051 9.58826 12.7991C9.58826 13.0752 9.3644 13.2991 9.08826 13.2991C8.81212 13.2991 8.58826 13.0752 8.58826 12.7991C8.58825 12.4309 8.64293 11.8677 8.81841 11.3633C8.87166 11.2102 8.94391 11.0416 9.04112 10.88H8.60229V10.38ZM17.1023 10.88C16.8262 10.88 16.6023 11.1039 16.6023 11.38C16.6023 11.6561 16.8262 11.88 17.1023 11.88H18.2718L17.9959 12.5255H11.0779C10.8369 12.5255 10.6301 12.6975 10.5862 12.9345L10.2255 14.8821C10.1846 14.8807 10.1435 14.88 10.1023 14.88C8.1693 14.88 6.60229 16.447 6.60229 18.38C6.60229 20.313 8.1693 21.88 10.1023 21.88C12.0353 21.88 13.6023 20.313 13.6023 18.38C13.6023 16.8341 12.6 15.5222 11.2098 15.0589L11.4938 13.5255H17.5685L16.4493 16.1439C16.3408 16.3978 16.4586 16.6916 16.7125 16.8002C16.9665 16.9087 17.2603 16.7908 17.3688 16.5369L18.3103 14.3342L18.9419 15.6261C18.1262 16.2669 17.6023 17.2623 17.6023 18.38C17.6023 20.313 19.1693 21.88 21.1023 21.88C23.0353 21.88 24.6023 20.313 24.6023 18.38C24.6023 16.447 23.0353 14.88 21.1023 14.88C20.6461 14.88 20.2102 14.9673 19.8106 15.1261L18.8295 13.1194L19.3593 11.88H20.1023C20.3784 11.88 20.6023 11.6561 20.6023 11.38C20.6023 11.1039 20.3784 10.88 20.1023 10.88H17.1023ZM10.1023 20.88C8.72158 20.88 7.60229 19.7607 7.60229 18.38C7.60229 17.0199 8.6884 15.9135 10.0406 15.8808L9.58771 18.3263C9.53742 18.5978 9.71677 18.8587 9.9883 18.909C10.2598 18.9593 10.5207 18.7799 10.571 18.5084L11.0252 16.0559C11.9491 16.4231 12.6023 17.3253 12.6023 18.38C12.6023 19.7607 11.483 20.88 10.1023 20.88ZM19.3953 16.5535C18.987 16.9352 18.7068 17.4522 18.6262 18.033C18.7129 17.9608 18.8244 17.9174 18.946 17.9174H20.0621L19.3953 16.5535ZM18.6396 18.8125C18.7242 18.8782 18.8305 18.9174 18.946 18.9174H20.8631C21.0356 18.9174 21.1959 18.8284 21.2872 18.6821C21.3786 18.5358 21.388 18.3527 21.3123 18.1978L20.2517 16.0284C20.5172 15.9324 20.8036 15.88 21.1023 15.88C22.483 15.88 23.6023 16.9993 23.6023 18.38C23.6023 19.7607 22.483 20.88 21.1023 20.88C19.8691 20.88 18.8444 19.9871 18.6396 18.8125Z" fill="#504D52"/>
</g>
<g filter="url(#filter2_iii_18590_579)">
<path d="M15.6023 1.92505C7.91234 1.92505 1.65234 8.18505 1.65234 15.875C1.65234 23.565 7.91234 29.825 15.6023 29.825C23.2923 29.825 29.5523 23.575 29.5523 15.875C29.5523 8.17505 23.3023 1.92505 15.6023 1.92505ZM26.5423 15.875C26.5423 18.2425 25.7798 20.4354 24.4926 22.2248C24.4041 22.3477 24.2269 22.3597 24.1198 22.2526L9.22505 7.36762C9.11785 7.26049 9.12974 7.0832 9.25277 6.9947C11.0421 5.70751 13.235 4.94505 15.6023 4.94505C21.6323 4.93505 26.5423 9.84505 26.5423 15.875ZM4.66234 15.875C4.66234 13.4981 5.43402 11.3048 6.72202 9.51538C6.81054 9.3924 6.98777 9.38048 7.09492 9.48762L21.9892 24.3819C22.0966 24.4893 22.0844 24.6669 21.961 24.7553C20.1628 26.0433 17.9698 26.815 15.6023 26.815C9.57234 26.815 4.66234 21.905 4.66234 15.875Z" fill="url(#paint2_linear_18590_579)"/>
</g>
<defs>
<filter id="filter0_i_18590_579" x="4.36235" y="4.94495" width="22.18" height="22.17" filterUnits="userSpaceOnUse" color-interpolation-filters="sRGB">
<feFlood flood-opacity="0" result="BackgroundImageFix"/>
<feBlend mode="normal" in="SourceGraphic" in2="BackgroundImageFix" result="shape"/>
<feColorMatrix in="SourceAlpha" type="matrix" values="0 0 0 0 0 0 0 0 0 0 0 0 0 0 0 0 0 0 127 0" result="hardAlpha"/>
<feOffset dx="-0.3" dy="0.3"/>
<feGaussianBlur stdDeviation="0.3"/>
<feComposite in2="hardAlpha" operator="arithmetic" k2="-1" k3="1"/>
<feColorMatrix type="matrix" values="0 0 0 0 0.901961 0 0 0 0 0.819608 0 0 0 0 0.901961 0 0 0 1 0"/>
<feBlend mode="normal" in2="shape" result="effect1_innerShadow_18590_579"/>
</filter>
<filter id="filter1_i_18590_579" x="6.30229" y="9.88" width="18.3" height="12.3" filterUnits="userSpaceOnUse" color-interpolation-filters="sRGB">
<feFlood flood-opacity="0" result="BackgroundImageFix"/>
<feBlend mode="normal" in="SourceGraphic" in2="BackgroundImageFix" result="shape"/>
<feColorMatrix in="SourceAlpha" type="matrix" values="0 0 0 0 0 0 0 0 0 0 0 0 0 0 0 0 0 0 127 0" result="hardAlpha"/>
<feOffset dx="-0.3" dy="0.3"/>
<feGaussianBlur stdDeviation="0.3"/>
<feComposite in2="hardAlpha" operator="arithmetic" k2="-1" k3="1"/>
<feColorMatrix type="matrix" values="0 0 0 0 0.184314 0 0 0 0 0.164706 0 0 0 0 0.203922 0 0 0 1 0"/>
<feBlend mode="normal" in2="shape" result="effect1_innerShadow_18590_579"/>
</filter>
<filter id="filter2_iii_18590_579" x="1.35234" y="1.52505" width="28.6" height="28.6" filterUnits="userSpaceOnUse" color-interpolation-filters="sRGB">
<feFlood flood-opacity="0" result="BackgroundImageFix"/>
<feBlend mode="normal" in="SourceGraphic" in2="BackgroundImageFix" result="shape"/>
<feColorMatrix in="SourceAlpha" type="matrix" values="0 0 0 0 0 0 0 0 0 0 0 0 0 0 0 0 0 0 127 0" result="hardAlpha"/>
<feOffset dy="-0.4"/>
<feGaussianBlur stdDeviation="0.2"/>
<feComposite in2="hardAlpha" operator="arithmetic" k2="-1" k3="1"/>
<feColorMatrix type="matrix" values="0 0 0 0 0.882353 0 0 0 0 0.113725 0 0 0 0 0.333333 0 0 0 1 0"/>
<feBlend mode="normal" in2="shape" result="effect1_innerShadow_18590_579"/>
<feColorMatrix in="SourceAlpha" type="matrix" values="0 0 0 0 0 0 0 0 0 0 0 0 0 0 0 0 0 0 127 0" result="hardAlpha"/>
<feOffset dx="0.4"/>
<feGaussianBlur stdDeviation="0.2"/>
<feComposite in2="hardAlpha" operator="arithmetic" k2="-1" k3="1"/>
<feColorMatrix type="matrix" values="0 0 0 0 0.827451 0 0 0 0 0.168627 0 0 0 0 0.172549 0 0 0 1 0"/>
<feBlend mode="normal" in2="effect1_innerShadow_18590_579" result="effect2_innerShadow_18590_579"/>
<feColorMatrix in="SourceAlpha" type="matrix" values="0 0 0 0 0 0 0 0 0 0 0 0 0 0 0 0 0 0 127 0" result="hardAlpha"/>
<feOffset dx="-0.3" dy="0.3"/>
<feGaussianBlur stdDeviation="0.15"/>
<feComposite in2="hardAlpha" operator="arithmetic" k2="-1" k3="1"/>
<feColorMatrix type="matrix" values="0 0 0 0 1 0 0 0 0 0.458824 0 0 0 0 0.568627 0 0 0 1 0"/>
<feBlend mode="normal" in2="effect2_innerShadow_18590_579" result="effect3_innerShadow_18590_579"/>
</filter>
<linearGradient id="paint0_linear_18590_579" x1="21.6523" y1="7.67496" x2="11.7148" y2="18.3625" gradientUnits="userSpaceOnUse">
<stop stop-color="#FFF7FF"/>
<stop offset="1" stop-color="#FBF2FF"/>
</linearGradient>
<linearGradient id="paint1_linear_18590_579" x1="21.6523" y1="7.67496" x2="11.7148" y2="18.3625" gradientUnits="userSpaceOnUse">
<stop stop-color="#FFF7FF"/>
<stop offset="1" stop-color="#FBF2FF"/>
</linearGradient>
<linearGradient id="paint2_linear_18590_579" x1="28.0273" y1="15.875" x2="10.5273" y2="15.875" gradientUnits="userSpaceOnUse">
<stop stop-color="#FF5075"/>
<stop offset="1" stop-color="#FF4B51"/>
</linearGradient>
</defs>
</svg>

<svg width="100%" height="100%" viewBox="0 0 32 32" xmlns="http://www.w3.org/2000/svg"><g filter="url(#a)"><path fill="url(#b)" d="M24.493 22.225a10.84 10.84 0 0 0 2.05-6.35c0-6.03-4.91-10.94-10.94-10.93-2.368 0-4.56.762-6.35 2.05a.245.245 0 0 0-.028.373L24.12 22.253a.245.245 0 0 0 .373-.028"/><path fill="url(#c)" d="M6.722 9.515a10.85 10.85 0 0 0-2.06 6.36c0 6.03 4.91 10.94 10.94 10.94 2.368 0 4.56-.772 6.359-2.06a.245.245 0 0 0 .028-.373L7.095 9.488a.245.245 0 0 0-.373.027"/></g><g filter="url(#d)"><path fill="#504D52" d="M8.602 10.38a.5.5 0 0 1 .5-.5h5a.5.5 0 0 1 0 1h-3.551a.5.5 0 0 1-.377.277c-.11.017-.272.134-.411.535a3.7 3.7 0 0 0-.175 1.107.5.5 0 0 1-1 0c0-.368.055-.931.23-1.436.054-.153.126-.321.223-.483h-.439zm8.5.5a.5.5 0 0 0 0 1h1.17l-.276.645h-6.918a.5.5 0 0 0-.492.41l-.36 1.947-.124-.002a3.5 3.5 0 1 0 1.108.179l.284-1.533h6.075l-1.12 2.618a.5.5 0 0 0 .92.393l.941-2.203.632 1.292a3.5 3.5 0 1 0 .869-.5l-.982-2.007.53-1.239h.743a.5.5 0 0 0 0-1zm-7 10a2.5 2.5 0 0 1-.061-5l-.453 2.446a.5.5 0 0 0 .983.182l.454-2.452a2.5 2.5 0 0 1-.923 4.824m9.293-4.326a2.5 2.5 0 0 0-.769 1.479.5.5 0 0 1 .32-.116h1.116zm-.755 2.259c.084.065.19.104.306.104h1.917a.5.5 0 0 0 .45-.72l-1.061-2.169a2.5 2.5 0 1 1-1.612 2.784"/></g><g filter="url(#e)"><path fill="url(#f)" d="M15.602 1.925c-7.69 0-13.95 6.26-13.95 13.95s6.26 13.95 13.95 13.95 13.95-6.25 13.95-13.95-6.25-13.95-13.95-13.95m10.94 13.95c0 2.367-.762 4.56-2.05 6.35a.245.245 0 0 1-.372.028L9.225 7.368a.245.245 0 0 1 .028-.373 10.84 10.84 0 0 1 6.35-2.05c6.03-.01 10.94 4.9 10.94 10.93m-21.88 0c0-2.377.772-4.57 2.06-6.36a.245.245 0 0 1 .373-.027l14.894 14.894a.245.245 0 0 1-.028.373 10.9 10.9 0 0 1-6.359 2.06c-6.03 0-10.94-4.91-10.94-10.94"/></g><defs><linearGradient id="b" x1="21.652" x2="11.715" y1="7.675" y2="18.363" gradientUnits="userSpaceOnUse"><stop stop-color="#FFF7FF"/><stop offset="1" stop-color="#FBF2FF"/></linearGradient><linearGradient id="c" x1="21.652" x2="11.715" y1="7.675" y2="18.363" gradientUnits="userSpaceOnUse"><stop stop-color="#FFF7FF"/><stop offset="1" stop-color="#FBF2FF"/></linearGradient><linearGradient id="f" x1="28.027" x2="10.527" y1="15.875" y2="15.875" gradientUnits="userSpaceOnUse"><stop stop-color="#FF5075"/><stop offset="1" stop-color="#FF4B51"/></linearGradient><filter id="a" width="22.18" height="22.17" x="4.362" y="4.945" color-interpolation-filters="sRGB" filterUnits="userSpaceOnUse"><feFlood flood-opacity="0" result="BackgroundImageFix"/><feBlend in="SourceGraphic" in2="BackgroundImageFix" result="shape"/><feColorMatrix in="SourceAlpha" result="hardAlpha" values="0 0 0 0 0 0 0 0 0 0 0 0 0 0 0 0 0 0 127 0"/><feOffset dx="-.3" dy=".3"/><feGaussianBlur stdDeviation=".3"/><feComposite in2="hardAlpha" k2="-1" k3="1" operator="arithmetic"/><feColorMatrix values="0 0 0 0 0.901961 0 0 0 0 0.819608 0 0 0 0 0.901961 0 0 0 1 0"/><feBlend in2="shape" result="effect1_innerShadow_18590_579"/></filter><filter id="d" width="18.3" height="12.3" x="6.302" y="9.88" color-interpolation-filters="sRGB" filterUnits="userSpaceOnUse"><feFlood flood-opacity="0" result="BackgroundImageFix"/><feBlend in="SourceGraphic" in2="BackgroundImageFix" result="shape"/><feColorMatrix in="SourceAlpha" result="hardAlpha" values="0 0 0 0 0 0 0 0 0 0 0 0 0 0 0 0 0 0 127 0"/><feOffset dx="-.3" dy=".3"/><feGaussianBlur stdDeviation=".3"/><feComposite in2="hardAlpha" k2="-1" k3="1" operator="arithmetic"/><feColorMatrix values="0 0 0 0 0.184314 0 0 0 0 0.164706 0 0 0 0 0.203922 0 0 0 1 0"/><feBlend in2="shape" result="effect1_innerShadow_18590_579"/></filter><filter id="e" width="28.6" height="28.6" x="1.352" y="1.525" color-interpolation-filters="sRGB" filterUnits="userSpaceOnUse"><feFlood flood-opacity="0" result="BackgroundImageFix"/><feBlend in="SourceGraphic" in2="BackgroundImageFix" result="shape"/><feColorMatrix in="SourceAlpha" result="hardAlpha" values="0 0 0 0 0 0 0 0 0 0 0 0 0 0 0 0 0 0 127 0"/><feOffset dy="-.4"/><feGaussianBlur stdDeviation=".2"/><feComposite in2="hardAlpha" k2="-1" k3="1" operator="arithmetic"/><feColorMatrix values="0 0 0 0 0.882353 0 0 0 0 0.113725 0 0 0 0 0.333333 0 0 0 1 0"/><feBlend in2="shape" result="effect1_innerShadow_18590_579"/><feColorMatrix in="SourceAlpha" result="hardAlpha" values="0 0 0 0 0 0 0 0 0 0 0 0 0 0 0 0 0 0 127 0"/><feOffset dx=".4"/><feGaussianBlur stdDeviation=".2"/><feComposite in2="hardAlpha" k2="-1" k3="1" operator="arithmetic"/><feColorMatrix values="0 0 0 0 0.827451 0 0 0 0 0.168627 0 0 0 0 0.172549 0 0 0 1 0"/><feBlend in2="effect1_innerShadow_18590_579" result="effect2_innerShadow_18590_579"/><feColorMatrix in="SourceAlpha" result="hardAlpha" values="0 0 0 0 0 0 0 0 0 0 0 0 0 0 0 0 0 0 127 0"/><feOffset dx="-.3" dy=".3"/><feGaussianBlur stdDeviation=".15"/><feComposite in2="hardAlpha" k2="-1" k3="1" operator="arithmetic"/><feColorMatrix values="0 0 0 0 1 0 0 0 0 0.458824 0 0 0 0 0.568627 0 0 0 1 0"/><feBlend in2="effect2_innerShadow_18590_579" result="effect3_innerShadow_18590_579"/></filter></defs></svg>
